src/assets/svgs/home.svg

<?xml version="1.0" encoding="utf-8"?><!-- Uploaded to: SVG Repo, www.svgrepo.com, Generator: SVG Repo Mixer Tools -->
<svg width="800px" height="800px" viewBox="0 0 24 24" fill="none" xmlns="http://www.w3.org/2000/svg">
<path d="M22 12.2039V13.725C22 17.6258 22 19.5763 20.8284 20.7881C19.6569 22 17.7712 22 14 22H10C6.22876 22 4.34315 22 3.17157 20.7881C2 19.5763 2 17.6258 2 13.725V12.2039C2 9.91549 2 8.77128 2.5192 7.82274C3.0384 6.87421 3.98695 6.28551 5.88403 5.10813L7.88403 3.86687C9.88939 2.62229 10.8921 2 12 2C13.1079 2 14.1106 2.62229 16.116 3.86687L18.116 5.10812C20.0131 6.28551 20.9616 6.87421 21.4808 7.82274" stroke="#1C274C" stroke-width="1.5" stroke-linecap="round"/>
<path d="M15 18H9" stroke="#1C274C" stroke-width="1.5" stroke-linecap="round"/>
</svg>

<svg width="800" height="800" viewBox="0 0 24 24" fill="none" xmlns="http://www.w3.org/2000/svg"><path d="M22 12.204v1.521c0 3.9 0 5.851-1.172 7.063C19.657 22 17.771 22 14 22h-4c-3.771 0-5.657 0-6.828-1.212C2 19.576 2 17.626 2 13.725v-1.521c0-2.289 0-3.433.52-4.381.518-.949 1.467-1.537 3.364-2.715l2-1.241C9.889 2.622 10.892 2 12 2c1.108 0 2.11.622 4.116 1.867l2 1.241c1.897 1.178 2.846 1.766 3.365 2.715M15 18H9" stroke="#ffffff" stroke-width="1.5" stroke-linecap="round"/></svg>
